X:33
T: Santa Lucia  (traditional Naples Italy) %% X:1 WJ 2012 plus WJ2016 changes
M: 3/4
L: 1/8
K: C
% %%vskip .3cm 
"C"G2 G3  c |"G7"cB   B4 |"F"F2 F3  A |"C"AG G4  |\
"A7"E2 A2 G2 |"G7"G^F =F4 |   F2 E2 D2 |"C"A2 G4 :|
|: \
"C"e2 d2 c2 |"Dm"BA d4 | "G7"d2  c2 A2 |"C"^FG c4  |\
   ec cG GE |"G7"Fd d4 |[1   d2  A3  B |"C"d2  c4 :|\
                        [2   d2 He3  d |"C"d2  c4  |]
% %%stretchlast

